X:1
T:Little Bench of Rushes [1], The
M:C
L:1/8
R:Air
Q:"Grazioso"
B:P.M. Haverty – One Hundred Irish Airs vol. 1 (1858, No. 24, p. 10).
Z:AK/Fiddler’s Companion
K:Cmin
(G/=A/=B/c/d/)|~e3f (gfed)|c4 (dcBG)|B4 (cBGF)|G2G2!fermata!G2 (G/=A/=B/c/d/)|
~e3f (gfed)|c4 (dcBG)|B4 (cBGF)|TD3C C2||
CD|~E3F G2G2|(GFED) E2 (EG)|B3 e (c>BGF)|G2G2!fermata!G2 (G/=A/=B/c/d/)
~e3f (gfed)|c4 (dcBG)|B4 (cBGF)|TD3C !fermata!C2||

